X: 4648
T:Martin Wynne's #1
N:IrTrad, 6/99, Jeffrey Erickson <jeerickson@DAVIDSON.EDU>
M:4/4
L:1/8
Q:200
C:Martin Wynne
S:Martin Mulvihill, First Collection
R:reel
K:D
dB|:AF {G}(3FEF GE {F}(3EDE|F2 AF EFDB,|A,B,DE FEFG|ABde {g}fedB|
AF {G}(3FEF GE {F}(3EDE|F2 AF EFDB,|A,B,DE FEFG|ABde fdd2:|
|:dfaf gbeg|fgdf edBd|(3dcB AF DEFA|ABde fe e2|dfaf (3gfg ag|fgdf edBd|
(3dcB AF DEFA|ABde fd d2:|
